packages/ui-solid/icons/close_24.svg

<svg width="24" height="24" viewBox="0 0 24 24" fill="none" xmlns="http://www.w3.org/2000/svg">
<g clip-path="url(#clip0_500_13387)">
<g opacity="0.5">
<path d="M12 24C18.5647 24 24 18.5529 24 12C24 5.43529 18.5529 0 11.9882 0C5.43529 0 0 5.43529 0 12C0 18.5529 5.44705 24 12 24Z" fill="black" fill-opacity="0.04"/>
<path d="M7.86242 17.1429C7.29848 17.1429 6.85714 16.6887 6.85714 16.1242C6.85714 15.8541 6.95521 15.5963 7.15136 15.4121L10.5472 12L7.15136 8.60006C6.95521 8.40368 6.85714 8.15819 6.85714 7.88817C6.85714 7.31128 7.29848 6.88169 7.86242 6.88169C8.14438 6.88169 8.36505 6.97988 8.5612 7.164L11.9816 10.5762L15.4265 7.15172C15.6349 6.94306 15.8556 6.85714 16.1253 6.85714C16.6892 6.85714 17.1429 7.29901 17.1429 7.86362C17.1429 8.14593 17.057 8.36686 16.8363 8.58779L13.4282 12L16.8241 15.4C17.0325 15.5841 17.1306 15.8417 17.1306 16.1242C17.1306 16.6887 16.677 17.1429 16.1008 17.1429C15.8188 17.1429 15.5613 17.0447 15.3774 16.8482L11.9816 13.4361L8.59797 16.8482C8.40184 17.0447 8.14438 17.1429 7.86242 17.1429Z" fill="black" fill-opacity="0.8"/>
</g>
</g>
<defs>
<clipPath id="clip0_500_13387">
<rect width="24" height="24" fill="white"/>
</clipPath>
</defs>
</svg>

<svg xmlns="http://www.w3.org/2000/svg" width="24" height="24" fill="none"><g fill="#000" clip-path="url(#a)" opacity=".5"><path fill-opacity=".04" d="M12 24c6.565 0 12-5.447 12-12 0-6.565-5.447-12-12.012-12C5.435 0 0 5.435 0 12c0 6.553 5.447 12 12 12"/><path fill-opacity=".8" d="M7.862 17.143a1.005 1.005 0 0 1-1.005-1.019c0-.27.098-.528.294-.712L10.547 12 7.151 8.6a.98.98 0 0 1-.294-.712.987.987 0 0 1 1.005-1.006c.282 0 .503.098.7.282l3.42 3.412 3.445-3.424a.93.93 0 0 1 .698-.295c.564 0 1.018.442 1.018 1.007a.95.95 0 0 1-.307.724L13.428 12l3.396 3.4a.94.94 0 0 1 .307.724c0 .565-.454 1.019-1.03 1.019a.97.97 0 0 1-.724-.295l-3.395-3.412-3.384 3.412a1.02 1.02 0 0 1-.736.295"/></g><defs><clipPath id="a"><path fill="#fff" d="M0 0h24v24H0z"/></clipPath></defs></svg>
